;FLAVOR:Marlin
;TIME:10876
;Filament used: 10.9439m
;Layer height: 0.2
;Generated with Cura_SteamEngine 3.3.0
M190 S110
M104 S240
M109 S240
M82 ;absolute extrusion mode
G21 ;metric values
G90 ;absolute positioning
M82 ;set extruder to absolute mode
M107 ;start with the fan off
G28 X0 Y0 ;move X/Y to min endstops
G28 Z0 ;move Z to min endstops
G1 Z15.0 F100 ;move the platform down 15mm
G92 E0 ;zero the extruded length
G1 F200 E3 ;extrude 3mm of feed stock
G92 E0 ;zero the extruded length again
G1 F100
M117 Printing...
G5
G92 E0
G1 F2400 E-2
;LAYER_COUNT:50
;LAYER:-6
M107
M204 S3000
M205 X10 Y10
G0 F6000 X54.185 Y57.072 Z0.24
M204 S1800
M205 X8 Y8
G1 F2400 E0
G1 F1350 X54.927 Y56.378 E0.0811
G1 X55.634 Y55.79 E0.1545
G1 X56.343 Y55.264 E0.22497
G1 X57.204 Y54.708 E0.30679
G1 X57.346 Y54.624 E0.31996
G1 X58.278 Y54.123 E0.40442
G1 X58.755 Y53.898 E0.44652
G1 X59.426 Y53.599 E0.50516
G1 X60.387 Y53.212 E0.58786
G1 X60.562 Y53.149 E0.6027
G1 X61.414 Y52.878 E0.67407
G1 X61.566 Y52.836 E0.68666
G1 X62.46 Y52.622 E0.76004
G1 X62.605 Y52.593 E0.77184
G1 X63.746 Y52.415 E0.86402
G1 X64.299 Y52.334 E0.90864
G1 X65.262 Y52.17 E0.98661
G1 X65.418 Y52.15 E0.99917
G1 X66.321 Y52.064 E1.07158
G1 X66.479 Y52.054 E1.08421
G1 X67.322 Y52.032 E1.15153
G1 X70.934 Y52.033 E1.43985
G1 X72.058 Y52.078 E1.52965
G1 X73.446 Y52.231 E1.64112
G1 X73.449 Y52.212 E1.64265
G1 X73.715 Y52.232 E1.66394
G1 X80.792 Y52.231 E2.22886
G1 X81.463 Y52.188 E2.28253
G1 X82.262 Y52.024 E2.34764
G1 X82.765 Y51.856 E2.38997
G1 X83.854 Y51.467 E2.48228
G1 X84.524 Y51.242 E2.5387
G1 X85.761 Y50.847 E2.64235
G1 X86.513 Y50.626 E2.70492
G1 X87.325 Y50.397 E2.77227
G1 X88.665 Y50.049 E2.88278
G1 X89.041 Y49.958 E2.91366
G1 X89.043 Y49.966 E2.91432
G1 X89.613 Y49.824 E2.96121
G1 X90.545 Y49.619 E3.03738
G1 X91.425 Y49.441 E3.10905
G1 X92.44 Y49.253 E3.19145
G1 X93.057 Y49.148 E3.24141
G1 X94.324 Y48.957 E3.34369
G1 X95.431 Y48.813 E3.4328
G1 X96.356 Y48.709 E3.5071
G1 X97.997 Y48.565 E3.6386
G1 X98.526 Y48.535 E3.68089
G1 X98.526 Y48.529 E3.68137
G1 X99.328 Y48.483 E3.7455
G1 X100.37 Y48.442 E3.82874
G1 X101.754 Y48.415 E3.93924
G1 X140.013 Y48.452 E6.99324
G1 X141.057 Y48.357 E7.07692
G1 X142.112 Y48.271 E7.16141
G1 X142.821 Y48.254 E7.21802
G1 X146.763 Y48.26 E7.53269
G1 X147.679 Y48.294 E7.60586
G1 X148.777 Y48.409 E7.69399
G1 X150.064 Y48.632 E7.79825
G1 X150.064 Y48.616 E7.79953
G1 X151.029 Y48.763 E7.87745
G1 X151.239 Y48.803 E7.89451
G1 X152.086 Y48.997 E7.96387
G1 X152.272 Y49.047 E7.97925
G1 X153.091 Y49.299 E8.04765
G1 X153.281 Y49.367 E8.06376
G1 X154.708 Y49.956 E8.18699
G1 X155.387 Y50.279 E8.24701
G1 X156.219 Y50.709 E8.32177
G1 X157.148 Y51.274 E8.40856
G1 X157.765 Y51.701 E8.46846
G1 X158.561 Y52.33 E8.54944
G1 X158.718 Y52.464 E8.56592
G1 X159.471 Y53.161 E8.64783
G1 X159.6 Y53.289 E8.66233
G1 X160.207 Y53.935 E8.73309
G1 X160.314 Y54.057 E8.74604
G1 X160.981 Y54.888 E8.8311
G1 X161.527 Y55.671 E8.9073
G1 X161.909 Y56.261 E8.96341
G1 X162.377 Y57.038 E9.03581
G1 X162.472 Y57.211 E9.05157
G1 X162.861 Y57.978 E9.12022
G1 X162.954 Y58.178 E9.13782
G1 X163.342 Y59.121 E9.21922
G1 X163.677 Y60.141 E9.30492
G1 X163.936 Y61.181 E9.39047
G1 X164.094 Y62.071 E9.46263
G1 X164.119 Y62.243 E9.4765
G1 X164.146 Y62.504 E9.49745
G1 X164.345 Y63.892 E9.60938
G1 X164.362 Y64.074 E9.62397
G1 X164.434 Y65.56 E9.74273
G1 X164.428 Y70.004 E10.09746
G1 X164.395 Y70.908 E10.16967
G1 X164.382 Y71.081 E10.18352
G1 X164.224 Y72.524 E10.2994
G1 X164.244 Y72.524 E10.30099
G1 X164.229 Y72.731 E10.31756
G1 X164.215 Y91.018 E11.77731
G1 X164.207 Y91.551 E11.81986
G1 X164.15 Y92.929 E11.92995
G1 X163.996 Y95.139 E12.10679
G1 X163.99 Y95.139 E12.10727
G1 X163.955 Y95.671 E12.14983
G1 X163.888 Y96.442 E12.21161
G1 X163.88 Y96.441 E12.21225
G1 X163.827 Y97.101 E12.2651
G1 X163.698 Y98.321 E12.36303
G1 X163.518 Y99.778 E12.48022
G1 X163.403 Y100.598 E12.54632
G1 X163.396 Y100.598 E12.54687
G1 X163.327 Y101.12 E12.58891
G1 X163.132 Y102.34 E12.68753
G1 X162.872 Y103.792 E12.80528
G1 X162.55 Y105.421 E12.93783
G1 X162.514 Y105.574 E12.95037
G1 X162.476 Y105.78 E12.96709
G1 X162.257 Y106.767 E13.0478
G1 X161.894 Y108.297 E13.17332
G1 X161.539 Y109.671 E13.2866
G1 X161.25 Y110.721 E13.37353
G1 X160.875 Y111.999 E13.47985
G1 X160.676 Y112.629 E13.53259
G1 X160.682 Y112.629 E13.53306
G1 X160.383 Y113.576 E13.61234
G1 X160.007 Y114.694 E13.70649
G1 X159.552 Y115.991 E13.81621
G1 X159.035 Y117.383 E13.93474
G1 X158.65 Y118.368 E14.01916
G1 X158.066 Y119.784 E14.14143
G1 X157.595 Y120.887 E14.23717
G1 X156.989 Y122.23 E14.35478
G1 X156.298 Y123.685 E14.48336
G1 X155.718 Y124.85 E14.58724
G1 X155.254 Y125.747 E14.66785
G1 X154.985 Y126.361 E14.72136
G1 X154.791 Y127.016 E14.77589
G1 X154.683 Y127.687 E14.83014
G1 X154.657 Y128.209 E14.87186
G1 X154.66 Y133.571 E15.29988
G1 X154.687 Y133.911 E15.32711
G1 X154.664 Y133.915 E15.32897
G1 X154.749 Y134.578 E15.38233
G1 X154.831 Y135.469 E15.45375
G1 X154.859 Y136.335 E15.52292
G1 X154.861 Y140.778 E15.87758
G1 X154.826 Y141.762 E15.95617
G1 X154.813 Y141.939 E15.97034
G1 X154.716 Y142.82 E16.04109
G1 X154.607 Y143.512 E16.09701
G1 X154.55 Y144.051 E16.14027
G1 X154.523 Y144.236 E16.1552
G1 X154.33 Y145.26 E16.23838
G1 X154.102 Y146.139 E16.31087
G1 X154.056 Y146.291 E16.32354
G1 X153.767 Y147.14 E16.39513
G1 X153.357 Y148.126 E16.48037
G1 X152.88 Y149.073 E16.56501
G1 X152.792 Y149.228 E16.57924
G1 X152.218 Y150.163 E16.66682
G1 X151.817 Y150.758 E16.72409
G1 X151.205 Y151.601 E16.80725
G1 X151.104 Y151.728 E16.8202
G1 X150.525 Y152.409 E16.89155
G1 X150.402 Y152.545 E16.90619
G1 X149.769 Y153.188 E16.97822
G1 X149.495 Y153.443 E17.0081
G1 X148.805 Y154.041 E17.08098
G1 X148.656 Y154.159 E17.09615
G1 X147.595 Y154.93 E17.20085
G1 X146.782 Y155.431 E17.27708
G1 X146.635 Y155.513 E17.29051
G1 X145.616 Y156.034 E17.38187
G1 X144.934 Y156.349 E17.44184
G1 X144.057 Y156.717 E17.51775
G1 X143.892 Y156.779 E17.53182
G1 X143.053 Y157.061 E17.60248
G1 X142.89 Y157.109 E17.61604
G1 X142.033 Y157.328 E17.68665
G1 X141.821 Y157.374 E17.70397
G1 X140.658 Y157.57 E17.79811
G1 X140.211 Y157.629 E17.8341
G1 X139.73 Y157.71 E17.87304
G1 X139.466 Y157.765 E17.89457
G1 X138.484 Y157.892 E17.97361
G1 X138.298 Y157.909 E17.98851
G1 X137.078 Y157.965 E18.086
G1 X133.306 Y157.967 E18.3871
G1 X132.27 Y157.93 E18.46985
G1 X130.759 Y157.768 E18.59116
G1 X130.756 Y157.787 E18.59269
G1 X130.491 Y157.767 E18.61391
G1 X123.433 Y157.767 E19.17731
G1 X122.765 Y157.809 E19.23073
G1 X122.097 Y157.937 E19.28503
G1 X121.6 Y158.092 E19.32658
G1 X119.974 Y158.667 E19.46425
G1 X119.115 Y158.945 E19.53633
G1 X118.315 Y159.194 E19.60321
G1 X117.306 Y159.488 E19.6871
G1 X116.294 Y159.763 E19.77081
G1 X115.75 Y159.901 E19.81561
G1 X115.75 Y159.895 E19.81609
G1 X115.07 Y160.067 E19.87208
G1 X114.18 Y160.27 E19.94495
G1 X113.198 Y160.478 E20.02507
G1 X112.601 Y160.595 E20.07364
G1 X111.894 Y160.723 E20.13099
G1 X111.894 Y160.71 E20.13203
G1 X111.306 Y160.826 E20.17987
G1 X110.345 Y160.978 E20.25753
G1 X109.654 Y161.075 E20.31323
G1 X108.597 Y161.207 E20.39826
G1 X107.776 Y161.297 E20.46419
G1 X107.121 Y161.351 E20.51665
G1 X107.122 Y161.36 E20.51738
G1 X106.661 Y161.399 E20.55431
G1 X106.206 Y161.429 E20.5907
G1 X106.206 Y161.434 E20.5911
G1 X105.448 Y161.486 E20.65175
G1 X104.679 Y161.526 E20.71322
G1 X103.715 Y161.561 E20.79022
G1 X102.673 Y161.581 E20.87341
G1 X69.974 Y161.585 E23.48359
G1 X69.197 Y161.643 E23.54579
G1 X68.808 Y161.696 E23.57712
G1 X67.753 Y161.774 E23.66157
G1 X67.174 Y161.785 E23.7078
G1 X63.38 Y161.784 E24.01065
G1 X62.256 Y161.739 E24.10044
G1 X61.199 Y161.619 E24.18536
G1 X60.434 Y161.484 E24.24737
G1 X60.096 Y161.431 E24.27468
G1 X59.768 Y161.388 E24.30109
G1 X58.668 Y161.205 E24.3901
G1 X57.637 Y160.956 E24.47476
G1 X56.811 Y160.695 E24.54391
G1 X56.604 Y160.62 E24.56149
G1 X55.398 Y160.126 E24.66552
G1 X54.744 Y159.822 E24.72309
G1 X53.937 Y159.413 E24.79531
G1 X53.766 Y159.318 E24.81092
G1 X52.492 Y158.522 E24.93084
G1 X51.598 Y157.843 E25.02045
G1 X51.041 Y157.362 E25.0792
G1 X50.769 Y157.109 E25.10885
G1 X50.391 Y156.749 E25.15052
G1 X50.26 Y156.616 E25.16542
G1 X49.654 Y155.953 E25.23712
G1 X49.561 Y155.843 E25.24862
G1 X48.901 Y154.999 E25.33414
G1 X48.573 Y154.529 E25.37989
G1 X48.223 Y154.006 E25.43013
G1 X47.688 Y153.142 E25.51125
G1 X47.595 Y152.978 E25.5263
G1 X47.179 Y152.177 E25.59834
G1 X47.111 Y152.034 E25.61098
G1 X46.75 Y151.197 E25.68375
G1 X46.404 Y150.21 E25.76723
G1 X46.351 Y150.034 E25.78191
G1 X46.122 Y149.175 E25.85287
G1 X46.081 Y148.997 E25.86745
G1 X45.919 Y148.141 E25.93699
G1 X45.891 Y147.958 E25.95177
G1 X45.828 Y147.408 E25.99596
G1 X45.657 Y146.211 E26.09248
G1 X45.638 Y146.011 E26.10852
G1 X45.565 Y144.546 E26.22561
G1 X45.565 Y140.115 E26.57931
G1 X45.611 Y138.974 E26.67046
G1 X45.763 Y137.598 E26.78097
G1 X45.745 Y137.594 E26.78244
G1 X45.765 Y137.317 E26.80461
G1 X45.769 Y104.397 E29.43242
G1 X45.79 Y103.318 E29.51857
G1 X45.829 Y102.34 E29.5967
G1 X45.915 Y100.917 E29.7105
G1 X45.921 Y100.917 E29.71098
G1 X45.949 Y100.434 E29.7496
G1 X45.996 Y99.899 E29.79247
G1 X46.006 Y99.899 E29.79327
G1 X46.047 Y99.357 E29.83665
G1 X46.145 Y98.46 E29.90868
G1 X46.265 Y97.483 E29.98726
G1 X46.408 Y96.477 E30.06837
G1 X46.543 Y95.625 E30.13723
G1 X46.7 Y94.751 E30.20811
G1 X46.919 Y93.61 E30.30085
G1 X47.233 Y92.176 E30.41803
G1 X47.239 Y92.178 E30.41854
G1 X47.358 Y91.643 E30.46229
G1 X47.767 Y90.053 E30.59334
G1 X48.051 Y89.055 E30.67617
G1 X48.261 Y88.352 E30.73473
G1 X48.267 Y88.353 E30.73522
G1 X48.41 Y87.867 E30.77566
G1 X48.921 Y86.327 E30.90518
G1 X49.241 Y85.436 E30.98075
G1 X49.429 Y84.793 E31.03423
G1 X49.536 Y84.122 E31.08846
G1 X49.559 Y83.622 E31.12842
G1 X49.561 Y76.478 E31.69868
G1 X49.514 Y75.783 E31.75429
G1 X49.482 Y75.545 E31.77346
G1 X49.393 Y74.62 E31.84764
G1 X49.363 Y73.737 E31.91816
G1 X49.361 Y69.186 E32.28144
G1 X49.407 Y68.045 E32.3726
G1 X49.507 Y67.143 E32.44504
G1 X49.624 Y66.38 E32.50666
G1 X49.617 Y66.38 E32.50721
G1 X49.72 Y65.576 E32.57192
G1 X49.892 Y64.703 E32.64294
G1 X49.937 Y64.514 E32.65845
G1 X50.168 Y63.675 E32.72792
G1 X50.225 Y63.493 E32.74314
G1 X50.577 Y62.513 E32.82626
G1 X50.941 Y61.684 E32.89853
G1 X51.014 Y61.533 E32.91192
G1 X51.44 Y60.727 E32.9847
G1 X51.518 Y60.593 E32.99707
G1 X52.237 Y59.472 E33.10338
G1 X52.798 Y58.681 E33.18079
G1 X53.448 Y57.867 E33.26394
G1 X54.051 Y57.208 E33.33524
G1 X54.185 Y57.072 E33.35048
M204 S3000
M205 X10 Y10
G0 F6000 X54.4 Y56.87
M204 S1800
M205 X8 Y8
G1 F1350 X54.4 Y159.647 E41.55459
M204 S3000
M205 X10 Y10
G0 F6000 X56 Y160.372
M204 S1800
M205 X8 Y8
G1 F1350 X56 Y55.518 E49.92449
M204 S3000
M205 X10 Y10
G0 F6000 X57.6 Y54.487
M204 S1800
M205 X8 Y8
G1 F1350 X57.6 Y160.944 E58.42235
M204 S3000
M205 X10 Y10
G0 F6000 X59.2 Y161.293
M204 S1800
M205 X8 Y8
G1 F1350 X59.2 Y53.699 E67.01096
M204 S3000
M205 X10 Y10
G0 F6000 X60.8 Y53.073
M204 S1800
M205 X8 Y8
G1 F1350 X60.8 Y161.548 E75.66991
M204 S3000
M205 X10 Y10
G0 F6000 X62.4 Y161.744
M204 S1800
M205 X8 Y8
G1 F1350 X62.4 Y52.636 E84.37938
M204 S3000
M205 X10 Y10
G0 F6000 X64 Y52.377
M204 S1800
M205 X8 Y8
G1 F1350 X64 Y161.784 E93.11272
M204 S3000
M205 X10 Y10
G0 F6000 X65.6 Y161.784
M204 S1800
M205 X8 Y8
G1 F1350 X65.6 Y52.132 E101.86562
M204 S3000
M205 X10 Y10
G0 F6000 X67.2 Y52.035
M204 S1800
M205 X8 Y8
G1 F1350 X67.2 Y161.785 E110.62634
M204 S3000
M205 X10 Y10
G0 F6000 X68.8 Y161.697
M204 S1800
M205 X8 Y8
G1 F1350 X68.8 Y52.033 E119.38019
M204 S3000
M205 X10 Y10
G0 F6000 X70.4 Y52.033
M204 S1800
M205 X8 Y8
G1 F1350 X70.4 Y161.585 E128.1251
M204 S3000
M205 X10 Y10
G0 F6000 X72 Y161.585
M204 S1800
M205 X8 Y8
G1 F1350 X72 Y52.076 E136.86659
M204 S3000
M205 X10 Y10
G0 F6000 X73.6 Y52.224
M204 S1800
M205 X8 Y8
G1 F1350 X73.6 Y161.585 E145.59625
M204 S3000
M205 X10 Y10
G0 F6000 X75.2 Y161.585
M204 S1800
M205 X8 Y8
G1 F1350 X75.2 Y52.231 E154.32536
M204 S3000
M205 X10 Y10
G0 F6000 X76.8 Y52.231
M204 S1800
M205 X8 Y8
G1 F1350 X76.8 Y161.585 E163.05447
M204 S3000
M205 X10 Y10
G0 F6000 X78.4 Y161.584
M204 S1800
M205 X8 Y8
G1 F1350 X78.4 Y52.231 E171.7835
M204 S3000
M205 X10 Y10
G0 F6000 X80 Y52.231
M204 S1800
M205 X8 Y8
G1 F1350 X80 Y161.584 E180.51253
M204 S3000
M205 X10 Y10
G0 F6000 X81.6 Y161.584
M204 S1800
M205 X8 Y8
G1 F1350 X81.6 Y52.159 E189.24731
M204 S3000
M205 X10 Y10
G0 F6000 X83.2 Y51.7
M204 S1800
M205 X8 Y8
G1 F1350 X83.2 Y161.584 E198.01872
M204 S3000
M205 X10 Y10
G0 F6000 X84.8 Y161.584
M204 S1800
M205 X8 Y8
G1 F1350 X84.8 Y51.153 E206.8338
M204 S3000
M205 X10 Y10
G0 F6000 X86.4 Y50.659
M204 S1800
M205 X8 Y8
G1 F1350 X86.4 Y161.583 E215.68824
M204 S3000
M205 X10 Y10
G0 F6000 X88 Y161.583
M204 S1800
M205 X8 Y8
G1 F1350 X88 Y50.221 E224.57763
M204 S3000
M205 X10 Y10
G0 F6000 X89.6 Y49.827
M204 S1800
M205 X8 Y8
G1 F1350 X89.6 Y161.583 E233.49848
M204 S3000
M205 X10 Y10
G0 F6000 X91.2 Y161.583
M204 S1800
M205 X8 Y8
G1 F1350 X91.2 Y49.486 E242.44655
M204 S3000
M205 X10 Y10
G0 F6000 X92.8 Y49.191
M204 S1800
M205 X8 Y8
G1 F1350 X92.8 Y161.583 E251.41816
M204 S3000
M205 X10 Y10
G0 F6000 X94.4 Y161.583
M204 S1800
M205 X8 Y8
G1 F1350 X94.4 Y48.947 E260.40926
M204 S3000
M205 X10 Y10
G0 F6000 X96 Y48.749
M204 S1800
M205 X8 Y8
G1 F1350 X96 Y161.582 E269.41607
M204 S3000
M205 X10 Y10
G0 F6000 X97.6 Y161.582
M204 S1800
M205 X8 Y8
G1 F1350 X97.6 Y48.599 E278.43487
M204 S3000
M205 X10 Y10
G0 F6000 X99.2 Y48.49
M204 S1800
M205 X8 Y8
G1 F1350 X99.2 Y161.582 E287.46236
M204 S3000
M205 X10 Y10
G0 F6000 X100.8 Y161.582
M204 S1800
M205 X8 Y8
G1 F1350 X100.8 Y48.433 E296.4944
M204 S3000
M205 X10 Y10
G0 F6000 X102.4 Y48.416
M204 S1800
M205 X8 Y8
G1 F1350 X102.4 Y161.582 E305.5278
M204 S3000
M205 X10 Y10
G0 F6000 X104 Y161.551
M204 S1800
M205 X8 Y8
G1 F1350 X104 Y48.418 E314.55857
M204 S3000
M205 X10 Y10
G0 F6000 X105.6 Y48.419
M204 S1800
M205 X8 Y8
G1 F1350 X105.6 Y161.476 E323.58326
M204 S3000
M205 X10 Y10
G0 F6000 X107.2 Y161.345
M204 S1800
M205 X8 Y8
G1 F1350 X107.2 Y48.421 E332.59735
M204 S3000
M205 X10 Y10
G0 F6000 X108.8 Y48.422
M204 S1800
M205 X8 Y8
G1 F1350 X108.8 Y161.182 E341.59834
M204 S3000
M205 X10 Y10
G0 F6000 X110.4 Y160.97
M204 S1800
M205 X8 Y8
G1 F1350 X110.4 Y48.424 E350.58225
M204 S3000
M205 X10 Y10
G0 F6000 X112 Y48.425
M204 S1800
M205 X8 Y8
G1 F1350 X112 Y160.704 E359.54484
M204 S3000
M205 X10 Y10
G0 F6000 X113.6 Y160.393
M204 S1800
M205 X8 Y8
G1 F1350 X113.6 Y48.427 E368.48245
M204 S3000
M205 X10 Y10
G0 F6000 X115.2 Y48.429
M204 S1800
M205 X8 Y8
G1 F1350 X115.2 Y160.035 E377.39132
M204 S3000
M205 X10 Y10
G0 F6000 X116.8 Y159.626
M204 S1800
M205 X8 Y8
G1 F1350 X116.8 Y48.43 E386.26747
M204 S3000
M205 X10 Y10
G0 F6000 X118.4 Y48.432
M204 S1800
M205 X8 Y8
G1 F1350 X118.4 Y159.168 E395.1069
M204 S3000
M205 X10 Y10
G0 F6000 X120 Y158.658
M204 S1800
M205 X8 Y8
G1 F1350 X120 Y48.433 E403.90553
M204 S3000
M205 X10 Y10
G0 F6000 X121.6 Y48.435
M204 S1800
M205 X8 Y8
G1 F1350 X121.6 Y158.092 E412.65883
M204 S3000
M205 X10 Y10
G0 F6000 X123.2 Y157.782
M204 S1800
M205 X8 Y8
G1 F1350 X123.2 Y48.436 E421.3873
M204 S3000
M205 X10 Y10
G0 F6000 X124.8 Y48.438
M204 S1800
M205 X8 Y8
G1 F1350 X124.8 Y157.767 E430.11441
M204 S3000
M205 X10 Y10
G0 F6000 X126.4 Y157.767
M204 S1800
M205 X8 Y8
G1 F1350 X126.4 Y48.439 E438.84145
M204 S3000
M205 X10 Y10
G0 F6000 X128 Y48.441
M204 S1800
M205 X8 Y8
G1 F1350 X128 Y157.767 E447.56832
M204 S3000
M205 X10 Y10
G0 F6000 X129.6 Y157.767
M204 S1800
M205 X8 Y8
G1 F1350 X129.6 Y48.442 E456.29511
M204 S3000
M205 X10 Y10
G0 F6000 X131.2 Y48.444
M204 S1800
M205 X8 Y8
G1 F1350 X131.2 Y157.815 E465.02558
M204 S3000
M205 X10 Y10
G0 F6000 X132.8 Y157.948
M204 S1800
M205 X8 Y8
G1 F1350 X132.8 Y48.446 E473.7665
M204 S3000
M205 X10 Y10
G0 F6000 X134.4 Y48.447
M204 S1800
M205 X8 Y8
G1 F1350 X134.4 Y157.967 E482.50886
M204 S3000
M205 X10 Y10
G0 F6000 X136 Y157.966
M204 S1800
M205 X8 Y8
G1 F1350 X136 Y48.449 E491.25098
M204 S3000
M205 X10 Y10
G0 F6000 X137.6 Y48.45
M204 S1800
M205 X8 Y8
G1 F1350 X137.6 Y157.942 E499.99111
M204 S3000
M205 X10 Y10
G0 F6000 X139.2 Y157.8
M204 S1800
M205 X8 Y8
G1 F1350 X139.2 Y48.452 E508.71974
M204 S3000
M205 X10 Y10
G0 F6000 X140.8 Y48.38
M204 S1800
