;FLAVOR:Marlin
;TIME:11816
;Filament used: 11.013m
;Layer height: 0.2
;Generated with Cura_SteamEngine 3.3.0
M190 S110
M104 S240
M109 S240
M82 ;absolute extrusion mode
G21 ;metric values
G90 ;absolute positioning
M82 ;set extruder to absolute mode
M107 ;start with the fan off
G28 X0 Y0 ;move X/Y to min endstops
G28 Z0 ;move Z to min endstops
G1 Z15.0 F100 ;move the platform down 15mm
G92 E0 ;zero the extruded length
G1 F200 E3 ;extrude 3mm of feed stock
G92 E0 ;zero the extruded length again
G1 F100
M117 Printing...
G5
G92 E0
G1 F2400 E-2
;LAYER_COUNT:50
;LAYER:-7
M107
M204 S3000
M205 X10 Y10
G0 F6000 X54.538 Y51.264 Z0.36
M204 S1800
M205 X8 Y8
G1 F2400 E0
G1 F900 X55.177 Y50.625 E0.1082
G1 X55.312 Y50.5 E0.13023
G1 X55.982 Y49.921 E0.23626
G1 X56.839 Y49.276 E0.36469
G1 X57.721 Y48.706 E0.49043
G1 X57.967 Y48.561 E0.52462
G1 X58.868 Y48.065 E0.64777
G1 X59.895 Y47.578 E0.78387
G1 X60.043 Y47.516 E0.80308
G1 X60.919 Y47.182 E0.91534
G1 X61.506 Y46.975 E0.98986
G1 X62.449 Y46.695 E1.10765
G1 X63.604 Y46.44 E1.24927
G1 X64.516 Y46.307 E1.35963
G1 X64.686 Y46.288 E1.38011
G1 X65.727 Y46.216 E1.50505
G1 X66.328 Y46.208 E1.57702
G1 X71.27 Y46.254 E2.16878
G1 X72.236 Y46.299 E2.28458
G1 X72.418 Y46.314 E2.30644
G1 X73.762 Y46.473 E2.46849
G1 X73.765 Y46.456 E2.47056
G1 X74.04 Y46.479 E2.5036
G1 X105.884 Y46.774 E6.31665
G1 X107.062 Y46.804 E6.45775
G1 X108.088 Y46.85 E6.58072
G1 X109.542 Y46.95 E6.75523
G1 X109.542 Y46.958 E6.75619
G1 X110.098 Y46.997 E6.82292
G1 X110.932 Y47.079 E6.92326
G1 X112.674 Y47.293 E7.13341
G1 X113.813 Y47.464 E7.27132
G1 X114.633 Y47.603 E7.37091
G1 X115.61 Y47.783 E7.48986
G1 X116.444 Y47.948 E7.59165
G1 X117.03 Y48.081 E7.6636
G1 X117.03 Y48.076 E7.6642
G1 X117.782 Y48.251 E7.75665
G1 X117.785 Y48.246 E7.75735
G1 X118.638 Y48.453 E7.86245
G1 X119.547 Y48.69 E7.97493
G1 X121.195 Y49.162 E8.18019
G1 X122.095 Y49.444 E8.29312
G1 X123.077 Y49.773 E8.41712
G1 X124.172 Y50.157 E8.55606
G1 X124.664 Y50.339 E8.61887
G1 X125.305 Y50.532 E8.69903
G1 X125.976 Y50.644 E8.78048
G1 X126.471 Y50.672 E8.83985
G1 X133.288 Y50.735 E9.65612
G1 X133.995 Y50.694 E9.74092
G1 X134.189 Y50.669 E9.76434
G1 X135.217 Y50.579 E9.8879
G1 X136.123 Y50.56 E9.99641
G1 X141.026 Y50.607 E10.5835
G1 X142.157 Y50.664 E10.71909
G1 X143.026 Y50.768 E10.82389
G1 X143.245 Y50.804 E10.85046
G1 X144.463 Y51.053 E10.99932
G1 X144.569 Y51.082 E11.01248
G1 X145.44 Y51.333 E11.12101
G1 X145.629 Y51.395 E11.14483
G1 X146.667 Y51.786 E11.27764
G1 X147.495 Y52.135 E11.38523
G1 X148.38 Y52.575 E11.50357
G1 X149.599 Y53.289 E11.67272
G1 X149.801 Y53.42 E11.70155
G1 X150.575 Y53.96 E11.81455
G1 X150.715 Y54.065 E11.83551
G1 X151.419 Y54.638 E11.94419
G1 X152.19 Y55.356 E12.07034
G1 X152.312 Y55.48 E12.09117
G1 X153.015 Y56.25 E12.21601
G1 X153.541 Y56.903 E12.31641
G1 X154.04 Y57.568 E12.41596
G1 X154.595 Y58.393 E12.53501
G1 X154.693 Y58.55 E12.55718
G1 X155.209 Y59.463 E12.68275
G1 X155.681 Y60.458 E12.81461
G1 X155.959 Y61.113 E12.89981
G1 X156.106 Y61.481 E12.94726
G1 X156.493 Y62.574 E13.08609
G1 X156.681 Y63.163 E13.16012
G1 X156.925 Y64.008 E13.26543
G1 X156.976 Y64.217 E13.29119
G1 X157.219 Y65.425 E13.43873
G1 X157.338 Y66.399 E13.55622
G1 X157.354 Y66.593 E13.57953
G1 X157.4 Y67.921 E13.73863
G1 X157.361 Y72.173 E14.24777
G1 X157.317 Y73.131 E14.3626
G1 X157.301 Y73.32 E14.38531
G1 X157.14 Y74.686 E14.55001
G1 X157.159 Y74.689 E14.55231
G1 X157.138 Y74.931 E14.58139
G1 X157.076 Y81.741 E15.39683
G1 X157.112 Y82.411 E15.47717
G1 X157.235 Y83.079 E15.5585
G1 X157.39 Y83.593 E15.62278
G1 X157.573 Y84.112 E15.68868
G1 X157.566 Y84.112 E15.68951
G1 X157.802 Y84.784 E15.77479
G1 X158.005 Y85.413 E15.85393
G1 X158.372 Y86.605 E16.00327
G1 X158.876 Y88.44 E16.23112
G1 X159.245 Y89.967 E16.41923
G1 X159.355 Y90.464 E16.48017
G1 X159.661 Y91.979 E16.66524
G1 X159.791 Y92.697 E16.75261
G1 X159.786 Y92.698 E16.75322
G1 X159.878 Y93.211 E16.81562
G1 X160.021 Y94.115 E16.92521
G1 X160.163 Y95.156 E17.05101
G1 X160.336 Y96.66 E17.23228
G1 X160.38 Y97.221 E17.29966
G1 X160.389 Y97.221 E17.30074
G1 X160.498 Y98.618 E17.46852
G1 X160.554 Y99.64 E17.59107
G1 X160.59 Y100.624 E17.70897
G1 X160.613 Y102.167 E17.89375
G1 X160.232 Y139.674 E22.38493
G1 X160.26 Y140.264 E22.45566
G1 X160.363 Y141.254 E22.57484
G1 X160.374 Y141.423 E22.59511
G1 X160.402 Y142.505 E22.72471
G1 X160.358 Y146.938 E23.25553
G1 X160.312 Y147.933 E23.3748
G1 X160.298 Y148.107 E23.3957
G1 X160.17 Y149.138 E23.52009
G1 X160.016 Y149.953 E23.61941
G1 X159.718 Y151.096 E23.76084
G1 X159.32 Y152.294 E23.91199
G1 X158.934 Y153.298 E24.04079
G1 X158.448 Y154.363 E24.18096
G1 X157.977 Y155.287 E24.30514
G1 X157.894 Y155.435 E24.32545
G1 X157.332 Y156.35 E24.45403
G1 X156.878 Y156.993 E24.54828
G1 X156.145 Y157.909 E24.68875
G1 X155.802 Y158.302 E24.75121
G1 X155.13 Y159.023 E24.86922
G1 X154.355 Y159.749 E24.99637
G1 X153.555 Y160.396 E25.11957
G1 X153.389 Y160.517 E25.14416
G1 X152.19 Y161.313 E25.31648
G1 X151.946 Y161.454 E25.35023
G1 X150.814 Y162.06 E25.50397
G1 X150.572 Y162.174 E25.536
G1 X149.737 Y162.54 E25.64516
G1 X149.548 Y162.614 E25.66947
G1 X148.999 Y162.81 E25.73926
G1 X148.782 Y162.896 E25.76721
G1 X148.576 Y162.967 E25.7933
G1 X147.089 Y163.402 E25.97881
G1 X146.13 Y163.59 E26.09583
G1 X145.956 Y163.618 E26.11693
G1 X145.101 Y163.723 E26.22007
G1 X144.882 Y163.74 E26.24637
G1 X143.539 Y163.79 E26.40729
G1 X138.685 Y163.741 E26.98852
G1 X137.722 Y163.697 E27.10395
G1 X137.546 Y163.682 E27.1251
G1 X136.183 Y163.518 E27.28948
G1 X136.18 Y163.537 E27.29178
G1 X135.923 Y163.515 E27.32266
G1 X118.245 Y163.339 E29.43947
G1 X117.567 Y163.324 E29.52067
G1 X116.235 Y163.257 E29.68036
G1 X113.385 Y163.027 E30.02272
G1 X113.385 Y163.018 E30.0238
G1 X112.819 Y162.973 E30.09178
G1 X111.551 Y162.836 E30.24449
G1 X110.169 Y162.664 E30.41124
G1 X108.893 Y162.482 E30.56557
G1 X107.681 Y162.288 E30.71254
G1 X106.276 Y162.038 E30.88342
G1 X104.936 Y161.773 E31.04697
G1 X103.442 Y161.451 E31.22996
G1 X102.746 Y161.282 E31.31572
G1 X102.746 Y161.29 E31.31668
G1 X102.091 Y161.134 E31.3973
G1 X101.407 Y160.955 E31.48196
G1 X101.407 Y160.961 E31.48268
G1 X100.722 Y160.784 E31.56739
G1 X99.136 Y160.344 E31.76446
G1 X98.117 Y160.041 E31.89176
G1 X96.889 Y159.657 E32.04581
G1 X95.561 Y159.214 E32.21344
G1 X94.394 Y158.806 E32.36146
G1 X93.396 Y158.437 E32.48887
G1 X91.962 Y157.882 E32.67298
G1 X90.692 Y157.361 E32.83734
G1 X89.994 Y157.058 E32.92846
G1 X89.994 Y157.062 E32.92893
G1 X89.146 Y156.691 E33.03976
G1 X87.928 Y156.135 E33.20008
G1 X86.751 Y155.571 E33.35635
G1 X85.577 Y154.985 E33.51346
G1 X84.293 Y154.313 E33.68699
G1 X83.685 Y154.03 E33.76729
G1 X83.035 Y153.821 E33.84904
G1 X82.366 Y153.696 E33.93053
G1 X81.77 Y153.658 E34.00204
G1 X76.674 Y153.616 E34.61224
G1 X76.009 Y153.653 E34.69198
G1 X75.422 Y153.724 E34.76278
G1 X75.215 Y153.74 E34.78764
G1 X73.895 Y153.789 E34.9458
G1 X69.051 Y153.744 E35.52583
G1 X68.106 Y153.702 E35.63909
G1 X67.914 Y153.686 E35.66216
G1 X67.063 Y153.585 E35.76477
G1 X66.838 Y153.548 E35.79207
G1 X65.514 Y153.273 E35.95399
G1 X65.08 Y153.16 E36.00769
G1 X64.205 Y152.902 E36.11692
G1 X64.029 Y152.843 E36.13914
G1 X63.205 Y152.533 E36.24456
G1 X62.249 Y152.098 E36.37032
G1 X62.068 Y152.005 E36.39468
G1 X60.921 Y151.352 E36.55272
G1 X60.348 Y150.987 E36.63406
G1 X59.577 Y150.46 E36.74589
G1 X59.437 Y150.356 E36.76677
G1 X58.743 Y149.803 E36.87302
G1 X58.609 Y149.687 E36.89424
G1 X57.965 Y149.092 E36.99923
G1 X57.828 Y148.957 E37.02226
G1 X57.121 Y148.194 E37.14681
G1 X56.654 Y147.626 E37.23485
G1 X55.992 Y146.766 E37.3648
G1 X55.388 Y145.86 E37.49518
G1 X54.868 Y144.944 E37.6213
G1 X54.785 Y144.784 E37.64288
G1 X54.411 Y143.995 E37.74743
G1 X54.025 Y143.091 E37.86512
G1 X53.676 Y142.166 E37.9835
G1 X53.609 Y141.963 E38.0091
G1 X53.367 Y141.213 E38.10346
G1 X53.077 Y140.191 E38.23066
G1 X52.926 Y139.496 E38.31582
G1 X52.774 Y138.556 E38.42983
G1 X52.753 Y138.385 E38.45046
G1 X52.673 Y137.484 E38.55877
G1 X52.65 Y136.536 E38.67231
G1 X52.696 Y132.189 E39.19284
G1 X52.742 Y131.192 E39.31234
G1 X52.759 Y130.989 E39.33673
G1 X52.925 Y129.611 E39.50292
G1 X52.898 Y129.608 E39.50618
G1 X52.916 Y129.435 E39.527
G1 X52.978 Y122.611 E40.34412
G1 X52.942 Y121.941 E40.42446
G1 X52.819 Y121.273 E40.50578
G1 X52.67 Y120.776 E40.56791
G1 X52.41 Y120.04 E40.66137
G1 X52.091 Y119.076 E40.78296
G1 X51.577 Y117.388 E40.99423
G1 X51.281 Y116.31 E41.12809
G1 X51.04 Y115.369 E41.24439
G1 X50.934 Y114.922 E41.2994
G1 X50.939 Y114.919 E41.3001
G1 X50.82 Y114.438 E41.35943
G1 X50.625 Y113.546 E41.46876
G1 X50.447 Y112.663 E41.57661
G1 X50.155 Y111.025 E41.77583
G1 X49.956 Y109.708 E41.93531
G1 X49.875 Y109.087 E42.0103
G1 X49.823 Y108.61 E42.06775
G1 X49.817 Y108.61 E42.06847
G1 X49.736 Y107.868 E42.15784
G1 X49.632 Y106.751 E42.29217
G1 X49.588 Y106.178 E42.36098
G1 X49.56 Y105.686 E42.41998
G1 X49.554 Y105.686 E42.4207
G1 X49.507 Y104.877 E42.51773
G1 X49.469 Y103.918 E42.63265
G1 X49.452 Y103.216 E42.71673
G1 X49.441 Y102.205 E42.83779
G1 X49.732 Y70.339 E46.65347
G1 X49.716 Y70.086 E46.68383
G1 X49.736 Y70.086 E46.68622
G1 X49.59 Y68.631 E46.86131
G1 X49.56 Y67.608 E46.98386
G1 X49.599 Y63.142 E47.51862
G1 X49.645 Y62.127 E47.64028
G1 X49.763 Y61.088 E47.76548
G1 X49.792 Y60.904 E47.78779
G1 X49.997 Y59.866 E47.91447
G1 X50.259 Y58.907 E48.03351
G1 X50.304 Y58.767 E48.05112
G1 X50.317 Y58.774 E48.05288
G1 X50.53 Y58.083 E48.13946
G1 X50.893 Y57.065 E48.26887
G1 X51.061 Y56.658 E48.32159
G1 X51.246 Y56.233 E48.37709
G1 X51.584 Y55.504 E48.47331
G1 X52.029 Y54.645 E48.58914
G1 X52.123 Y54.481 E48.61178
G1 X52.835 Y53.354 E48.77139
G1 X53.45 Y52.538 E48.89374
G1 X53.816 Y52.092 E48.96282
G1 X54.422 Y51.389 E49.07396
G1 X54.538 Y51.264 E49.09437
M204 S3000
M205 X10 Y10
G0 F6000 X54.4 Y51.414
M204 S1800
M205 X8 Y8
G1 F900 X54.4 Y143.969 E60.17659
M204 S3000
M205 X10 Y10
G0 F6000 X56 Y146.776
M204 S1800
M205 X8 Y8
G1 F900 X56 Y49.907 E71.77534
M204 S3000
M205 X10 Y10
G0 F6000 X57.6 Y48.784
M204 S1800
M205 X8 Y8
G1 F900 X57.6 Y148.71 E83.74013
M204 S3000
M205 X10 Y10
G0 F6000 X59.2 Y150.167
M204 S1800
M205 X8 Y8
G1 F900 X59.2 Y47.907 E95.98438
M204 S3000
M205 X10 Y10
G0 F6000 X60.8 Y47.227
M204 S1800
M205 X8 Y8
G1 F900 X60.8 Y151.274 E108.4426
M204 S3000
M205 X10 Y10
G0 F6000 X62.4 Y152.166
M204 S1800
M205 X8 Y8
G1 F900 X62.4 Y46.709 E121.06965
M204 S3000
M205 X10 Y10
G0 F6000 X64 Y46.382
M204 S1800
M205 X8 Y8
G1 F900 X64 Y152.832 E133.8156
M204 S3000
M205 X10 Y10
G0 F6000 X65.6 Y153.29
M204 S1800
M205 X8 Y8
G1 F900 X65.6 Y46.224 E146.63531
M204 S3000
M205 X10 Y10
G0 F6000 X67.2 Y46.217
M204 S1800
M205 X8 Y8
G1 F900 X67.2 Y153.601 E159.49309
M204 S3000
M205 X10 Y10
G0 F6000 X68.8 Y153.732
M204 S1800
M205 X8 Y8
G1 F900 X68.8 Y46.232 E172.36476
M204 S3000
M205 X10 Y10
G0 F6000 X70.4 Y46.246
M204 S1800
M205 X8 Y8
G1 F900 X70.4 Y153.756 E185.23763
M204 S3000
M205 X10 Y10
G0 F6000 X72 Y153.771
M204 S1800
M205 X8 Y8
G1 F900 X72 Y46.289 E198.10715
M204 S3000
M205 X10 Y10
G0 F6000 X73.6 Y46.454
M204 S1800
M205 X8 Y8
G1 F900 X73.6 Y153.786 E210.95871
M204 S3000
M205 X10 Y10
G0 F6000 X75.2 Y153.741
M204 S1800
M205 X8 Y8
G1 F900 X75.2 Y46.49 E223.80056
M204 S3000
M205 X10 Y10
G0 F6000 X76.8 Y46.505
M204 S1800
M205 X8 Y8
G1 F900 X76.8 Y153.617 E236.62578
M204 S3000
M205 X10 Y10
G0 F6000 X78.4 Y153.63
M204 S1800
M205 X8 Y8
G1 F900 X78.4 Y46.52 E249.45075
M204 S3000
M205 X10 Y10
G0 F6000 X80 Y46.535
M204 S1800
M205 X8 Y8
G1 F900 X80 Y153.643 E262.27549
M204 S3000
M205 X10 Y10
G0 F6000 X81.6 Y153.656
M204 S1800
M205 X8 Y8
G1 F900 X81.6 Y46.55 E275.09999
M204 S3000
M205 X10 Y10
G0 F6000 X83.2 Y46.564
M204 S1800
M205 X8 Y8
G1 F900 X83.2 Y153.874 E287.94891
M204 S3000
M205 X10 Y10
G0 F6000 X84.8 Y154.578
M204 S1800
M205 X8 Y8
G1 F900 X84.8 Y46.579 E300.88033
M204 S3000
M205 X10 Y10
G0 F6000 X86.4 Y46.594
M204 S1800
M205 X8 Y8
G1 F900 X86.4 Y155.395 E313.90778
M204 S3000
M205 X10 Y10
G0 F6000 X88 Y156.167
M204 S1800
M205 X8 Y8
G1 F900 X88 Y46.609 E327.02587
M204 S3000
M205 X10 Y10
G0 F6000 X89.6 Y46.624
M204 S1800
M205 X8 Y8
G1 F900 X89.6 Y156.889 E340.22861
M204 S3000
M205 X10 Y10
G0 F6000 X91.2 Y157.569
M204 S1800
M205 X8 Y8
G1 F900 X91.2 Y46.638 E353.5111
M204 S3000
M205 X10 Y10
G0 F6000 X92.8 Y46.653
M204 S1800
M205 X8 Y8
G1 F900 X92.8 Y158.206 E366.86806
M204 S3000
M205 X10 Y10
G0 F6000 X94.4 Y158.808
M204 S1800
M205 X8 Y8
G1 F900 X94.4 Y46.668 E380.29531
M204 S3000
M205 X10 Y10
G0 F6000 X96 Y46.683
M204 S1800
M205 X8 Y8
G1 F900 X96 Y159.36 E393.78686
M204 S3000
M205 X10 Y10
G0 F6000 X97.6 Y159.879
M204 S1800
M205 X8 Y8
G1 F900 X97.6 Y46.698 E407.33876
M204 S3000
M205 X10 Y10
G0 F6000 X99.2 Y46.713
M204 S1800
M205 X8 Y8
G1 F900 X99.2 Y160.361 E420.94657
M204 S3000
M205 X10 Y10
G0 F6000 X100.8 Y160.804
M204 S1800
M205 X8 Y8
G1 F900 X100.8 Y46.727 E434.60575
M204 S3000
M205 X10 Y10
G0 F6000 X102.4 Y46.742
M204 S1800
M205 X8 Y8
G1 F900 X102.4 Y161.207 E448.31139
M204 S3000
M205 X10 Y10
G0 F6000 X104 Y161.571
M204 S1800
M205 X8 Y8
G1 F900 X104 Y46.757 E462.05881
M204 S3000
M205 X10 Y10
G0 F6000 X105.6 Y46.772
M204 S1800
M205 X8 Y8
G1 F900 X105.6 Y161.904 E475.84431
M204 S3000
M205 X10 Y10
G0 F6000 X107.2 Y162.202
M204 S1800
M205 X8 Y8
G1 F900 X107.2 Y46.811 E489.66082
M204 S3000
M205 X10 Y10
G0 F6000 X108.8 Y46.899
M204 S1800
M205 X8 Y8
G1 F900 X108.8 Y162.467 E503.49853
M204 S3000
M205 X10 Y10
G0 F6000 X110.4 Y162.692
M204 S1800
M205 X8 Y8
G1 F900 X110.4 Y47.027 E517.34785
M204 S3000
M205 X10 Y10
G0 F6000 X112 Y47.211
M204 S1800
M205 X8 Y8
G1 F900 X112 Y162.884 E531.19813
M204 S3000
M205 X10 Y10
G0 F6000 X113.6 Y163.044
M204 S1800
M205 X8 Y8
G1 F900 X113.6 Y47.433 E545.04098
M204 S3000
M205 X10 Y10
G0 F6000 X115.2 Y47.708
M204 S1800
M205 X8 Y8
G1 F900 X115.2 Y163.173 E558.86636
M204 S3000
M205 X10 Y10
G0 F6000 X116.8 Y163.285
M204 S1800
M205 X8 Y8
G1 F900 X116.8 Y48.029 E572.66671
M204 S3000
M205 X10 Y10
G0 F6000 X118.4 Y48.396
M204 S1800
M205 X8 Y8
G1 F900 X118.4 Y163.34 E586.4297
M204 S3000
M205 X10 Y10
G0 F6000 X120 Y163.356
M204 S1800
M205 X8 Y8
G1 F900 X120 Y48.82 E600.14384
M204 S3000
M205 X10 Y10
G0 F6000 X121.6 Y49.289
M204 S1800
M205 X8 Y8
G1 F900 X121.6 Y163.372 E613.80373
M204 S3000
M205 X10 Y10
G0 F6000 X123.2 Y163.388
M204 S1800
M205 X8 Y8
G1 F900 X123.2 Y49.817 E627.40233
M204 S3000
M205 X10 Y10
G0 F6000 X124.8 Y50.38
M204 S1800
M205 X8 Y8
G1 F900 X124.8 Y163.404 E640.93542
M204 S3000
M205 X10 Y10
G0 F6000 X126.4 Y163.42
M204 S1800
M205 X8 Y8
G1 F900 X126.4 Y50.668 E654.43595
M204 S3000
M205 X10 Y10
G0 F6000 X128 Y50.687
M204 S1800
M205 X8 Y8
G1 F900 X128 Y163.436 E667.93612
M204 S3000
M205 X10 Y10
G0 F6000 X129.6 Y163.452
M204 S1800
M205 X8 Y8
G1 F900 X129.6 Y50.701 E681.43653
M204 S3000
M205 X10 Y10
G0 F6000 X131.2 Y50.716
M204 S1800
M205 X8 Y8
G1 F900 X131.2 Y163.467 E694.93694
M204 S3000
M205 X10 Y10
G0 F6000 X132.8 Y163.483
M204 S1800
M205 X8 Y8
G1 F900 X132.8 Y50.731 E708.43746
M204 S3000
M205 X10 Y10
G0 F6000 X134.4 Y50.65
M204 S1800
M205 X8 Y8
G1 F900 X134.4 Y163.499 E721.94961
M204 S3000
M205 X10 Y10
G0 F6000 X136 Y163.521
M204 S1800
M205 X8 Y8
G1 F900 X136 Y50.562 E735.47492
M204 S3000
M205 X10 Y10
G0 F6000 X137.6 Y50.575
M204 S1800
M205 X8 Y8
G1 F900 X137.6 Y163.686 E749.01843
M204 S3000
M205 X10 Y10
G0 F6000 X139.2 Y163.746
M204 S1800
M205 X8 Y8
G1 F900 X139.2 Y50.59 E762.56734
M204 S3000
M205 X10 Y10
G0 F6000 X140.8 Y50.605
M204 S1800
M205 X8 Y8
G1 F900 X140.8 Y163.762 E776.11636
M204 S3000
M205 X10 Y10
G0 F6000 X142.4 Y163.778
M204 S1800
M205 X8 Y8
G1 F900 X142.4 Y50.694 E789.65664
M204 S3000
M205 X10 Y10
G0 F6000 X144 Y50.959
M204 S1800
M205 X8 Y8
G1 F900 X144 Y163.773 E803.16459
M204 S3000
M205 X10 Y10
G0 F6000 X145.6 Y163.662
M204 S1800
M205 X8 Y8
G1 F900 X145.6 Y51.386 E816.60812
M204 S3000
M205 X10 Y10
G0 F6000 X147.2 Y52.011
M204 S1800
M205 X8 Y8
G1 F900 X147.2 Y163.37 E829.94186
M204 S3000
M205 X10 Y10
G0 F6000 X148.8 Y162.889
M204 S1800
M205 X8 Y8
G1 F900 X148.8 Y52.822 E843.1209
M204 S3000
M205 X10 Y10
G0 F6000 X150.4 Y53.838
M204 S1800
M205 X8 Y8
G1 F900 X150.4 Y162.25 E856.10177
M204 S3000
M205 X10 Y10
G0 F6000 X152 Y161.423
M204 S1800
